icons/cssnext.svg

<?xml version="1.0" encoding="UTF-8" standalone="no"?>
<svg width="256px" height="311px" viewBox="0 0 256 311" version="1.1" xmlns="http://www.w3.org/2000/svg" xmlns:xlink="http://www.w3.org/1999/xlink" preserveAspectRatio="xMidYMid">
    <defs>
        <linearGradient x1="50.0024502%" y1="0.00264964471%" x2="50.0018377%" y2="99.9995182%" id="linearGradient-1">
            <stop stop-color="#5C70B5" offset="0%"></stop>
            <stop stop-color="#507DBF" offset="67.5%"></stop>
            <stop stop-color="#428BCA" offset="100%"></stop>
        </linearGradient>
        <linearGradient x1="49.9987934%" y1="-27.1396166%" x2="49.9987934%" y2="124.764745%" id="linearGradient-2">
            <stop stop-color="#5C70B5" offset="0%"></stop>
            <stop stop-color="#507DBF" offset="67.5%"></stop>
            <stop stop-color="#428BCA" offset="100%"></stop>
        </linearGradient>
        <linearGradient x1="50.0100865%" y1="-36.8545297%" x2="50.0100865%" y2="134.212088%" id="linearGradient-3">
            <stop stop-color="#5C70B5" offset="0%"></stop>
            <stop stop-color="#507DBF" offset="67.5%"></stop>
            <stop stop-color="#428BCA" offset="100%"></stop>
        </linearGradient>
        <linearGradient x1="49.9982578%" y1="-45.8695652%" x2="49.9982578%" y2="142.961161%" id="linearGradient-4">
            <stop stop-color="#5C70B5" offset="0%"></stop>
            <stop stop-color="#507DBF" offset="67.5%"></stop>
            <stop stop-color="#428BCA" offset="100%"></stop>
        </linearGradient>
        <linearGradient x1="49.9978275%" y1="-62.7904986%" x2="49.9978275%" y2="159.334475%" id="linearGradient-5">
            <stop stop-color="#5C70B5" offset="0%"></stop>
            <stop stop-color="#507DBF" offset="67.5%"></stop>
            <stop stop-color="#428BCA" offset="100%"></stop>
        </linearGradient>
    </defs>
	<g>
		<path d="M101.722929,20.8259964 C95.4931293,20.8259964 90.583898,23.8550965 87.04,29.9879053 C83.4811803,36.0983315 81.011643,42.842929 79.6910747,50.1620109 L67.343388,110.557494 C65.5677086,118.376452 62.9489545,125.001676 59.4945865,130.463009 C56.0178361,135.894499 52.429173,140.371002 48.6539891,143.795526 C44.8564226,147.249894 41.1334645,149.905953 37.4552714,151.815927 C33.792,153.696058 30.9121166,154.874871 28.9424554,155.352364 L28.6216393,156.299891 C30.1809545,156.56102 32.1655373,157.225035 34.6276138,158.321778 C37.0673078,159.41106 39.454776,161.253887 41.8124007,163.820415 C44.147643,166.372022 46.1471475,169.595104 47.8332969,173.497122 C49.4896029,177.39914 50.3252168,182.360597 50.3252168,188.336729 C50.3252168,190.358616 50.1088525,192.335738 49.6537413,194.350164 C49.1911694,196.372051 48.7584408,198.580459 48.3182514,201.049996 L35.9705647,261.132124 C35.2990893,264.937151 34.9782732,268.66757 34.9782732,272.480058 C34.9782732,277.613115 35.6422878,281.858332 36.9852386,285.335082 C38.3356503,288.804372 41.3199854,290.475599 46.0053916,290.475599 L62.6878251,290.475599 L58.3530783,310.500488 L34.9857341,310.500488 C31.628357,310.500488 28.2560583,309.836474 24.8016903,308.493523 C21.3249399,307.143111 18.3033005,305.277902 15.6248597,302.830747 C12.9314973,300.428357 10.7976976,297.279883 9.11154827,293.489778 C7.45524226,289.67729 6.61962842,285.357464 6.61962842,280.492998 C6.61962842,278.471111 6.73154098,276.300007 6.94044444,273.949843 C7.14934791,271.622062 7.50000729,269.242055 7.94765756,266.779978 L20.6161603,206.391956 C21.0488889,203.92988 21.3995483,201.549872 21.6084517,199.177326 C21.8173552,196.849545 21.9218069,194.685902 21.9218069,192.671475 C21.9218069,184.889821 19.8849982,178.73463 15.7666157,174.161137 C11.655694,169.610026 6.67931512,167.297166 0.91954827,167.297166 L5.91830965,144.608758 C9.46220765,144.608758 13.1030965,143.676153 16.7589071,141.7811 C20.4221785,139.893508 23.8914681,137.304597 27.0996284,133.94722 C30.3152495,130.612226 33.2324372,126.508765 35.7989654,121.606995 C38.3505719,116.690302 40.3053115,111.258812 41.6333406,105.245377 L54.3018434,44.4693916 C55.6373333,37.3592131 57.9725756,31.0921093 61.3001093,25.6083934 C64.6351038,20.1769035 68.4252095,15.6034098 72.6480437,11.9475993 C76.8559563,8.27686703 81.3175373,5.47905282 86.0104044,3.60638251 C90.6808889,1.71879053 95.1350091,0.763803279 99.3354608,0.763803279 L122.717727,0.763803279 L118.397902,20.7886922 L101.73039,20.7886922 L101.722929,20.8259964 L101.722929,20.8259964 Z" fill="url(#linearGradient-1)"></path>
		<path d="M152.583461,56.0859162 L112.958951,260.005537 L90.7480364,260.005537 L130.327781,56.0859162 L152.583461,56.0859162 L152.583461,56.0859162 Z" fill="url(#linearGradient-2)"></path>
		<path d="M190.976933,67.4786157 L155.082842,248.575534 L139.198718,248.575534 L175.219643,67.4786157 L190.976933,67.4786157 L190.976933,67.4786157 L190.976933,67.4786157 Z" fill="url(#linearGradient-3)"></path>
		<path d="M226.535286,76.0063534 L194.490987,240.055257 L183.710077,240.055257 L215.79914,76.0063534 L226.535286,76.0063534 L226.535286,76.0063534 Z" fill="url(#linearGradient-4)"></path>
		<path d="M255.080452,88.309275 L226.75165,227.767257 L220.738215,227.767257 L248.947643,88.309275 L255.080452,88.309275 L255.080452,88.309275 Z" fill="url(#linearGradient-5)"></path>
	</g>
</svg>

<svg xmlns="http://www.w3.org/2000/svg" viewBox="0 0 254.161 309.737">
  <defs>
    <linearGradient id="a" x1="98.586" x2="98.585" y1=".484" y2="194.708" gradientTransform="scale(.62708 1.59469)" gradientUnits="userSpaceOnUse">
      <stop offset="0%" stop-color="#5C70B5"/>
      <stop offset="67.5%" stop-color="#507DBF"/>
      <stop offset="100%" stop-color="#428BCA"/>
    </linearGradient>
    <linearGradient id="b" x1="220.941" x2="220.941" y1=".409" y2="170.985" gradientTransform="scale(.55067 1.81598)" gradientUnits="userSpaceOnUse">
      <stop offset="0%" stop-color="#5C70B5"/>
      <stop offset="67.5%" stop-color="#507DBF"/>
      <stop offset="100%" stop-color="#428BCA"/>
    </linearGradient>
    <linearGradient id="c" x1="308.753" x2="308.753" y1=".394" y2="166.045" gradientTransform="scale(.53471 1.87017)" gradientUnits="userSpaceOnUse">
      <stop offset="0%" stop-color="#5C70B5"/>
      <stop offset="67.5%" stop-color="#507DBF"/>
      <stop offset="100%" stop-color="#428BCA"/>
    </linearGradient>
    <linearGradient id="d" x1="401.466" x2="401.466" y1=".387" y2="158.661" gradientTransform="scale(.51093 1.9572)" gradientUnits="userSpaceOnUse">
      <stop offset="0%" stop-color="#5C70B5"/>
      <stop offset="67.5%" stop-color="#507DBF"/>
      <stop offset="100%" stop-color="#428BCA"/>
    </linearGradient>
    <linearGradient id="e" x1="479.421" x2="479.421" y1=".369" y2="154.09" gradientTransform="scale(.49624 2.01515)" gradientUnits="userSpaceOnUse">
      <stop offset="0%" stop-color="#5C70B5"/>
      <stop offset="67.5%" stop-color="#507DBF"/>
      <stop offset="100%" stop-color="#428BCA"/>
    </linearGradient>
  </defs>
  <path fill="url(#a)" d="M101.723 20.826c-6.23 0-11.14 3.03-14.683 9.162-3.559 6.11-6.028 12.855-7.349 20.174l-12.348 60.395c-1.775 7.82-4.394 14.445-7.848 19.906-3.477 5.432-7.066 9.908-10.841 13.333-3.798 3.454-7.52 6.11-11.199 8.02-3.663 1.88-6.543 3.059-8.513 3.536l-.32.948c1.559.261 3.544.925 6.006 2.022 2.44 1.09 4.827 2.932 7.184 5.498 2.336 2.552 4.335 5.775 6.021 9.677 1.657 3.902 2.492 8.864 2.492 14.84 0 2.022-.216 3.999-.671 6.013-.463 2.022-.896 4.23-1.336 6.7l-12.347 60.082a64.723 64.723 0 0 0-.993 11.348c0 5.133.664 9.378 2.007 12.855 1.35 3.47 4.335 5.14 9.02 5.14h16.683L58.353 310.5H34.986c-3.358 0-6.73-.664-10.184-2.006-3.477-1.35-6.499-3.216-9.177-5.663-2.694-2.403-4.827-5.551-6.513-9.341-1.657-3.813-2.492-8.133-2.492-12.997 0-2.022.112-4.193.32-6.543.21-2.328.56-4.708 1.008-7.17l12.668-60.388c.433-2.462.784-4.842.992-7.215.21-2.327.314-4.491.314-6.506 0-7.781-2.037-13.936-6.155-18.51-4.111-4.551-9.088-6.864-14.847-6.864l4.998-22.688c3.544 0 7.185-.933 10.84-2.828 3.664-1.887 7.133-4.476 10.342-7.834 3.215-3.335 6.132-7.438 8.699-12.34 2.552-4.917 4.506-10.348 5.834-16.362L54.302 44.47c1.335-7.11 3.67-13.377 6.998-18.86 3.335-5.432 7.125-10.006 11.348-13.661 4.208-3.671 8.67-6.469 13.362-8.342C90.68 1.72 95.135.764 99.335.764h23.383l-4.32 20.025H101.73l-.007.037z" style="fill:url(#a)" transform="translate(-.92 -.764)"/>
  <path fill="url(#b)" d="m152.583 56.086-39.624 203.92H90.748l39.58-203.92z" style="fill:url(#b)" transform="translate(-.92 -.764)"/>
  <path fill="url(#c)" d="m190.977 67.479-35.894 181.097h-15.884l36.02-181.097h15.758z" style="fill:url(#c)" transform="translate(-.92 -.764)"/>
  <path fill="url(#d)" d="m226.535 76.006-32.044 164.05h-10.78l32.088-164.05z" style="fill:url(#d)" transform="translate(-.92 -.764)"/>
  <path fill="url(#e)" d="m255.08 88.31-28.328 139.457h-6.014l28.21-139.458z" style="fill:url(#e)" transform="translate(-.92 -.764)"/>
</svg>
